X:244
T:The Divels Dream
O:No 244 William Clarke of Feltwell
M:4/4
L:1/8
K:C
c'bc'a c'bc'a|c'bc'a agfe|fada fada|fadc' c'bag|gc'bc' gc'bc'|bc'ba agfe|abc'a gedc|G2B2c4::egcg egcg|egcg agfe|fada fada|fadc' c'bag|egcg egcg|egcg agfe|c'bc'e fedc|G2B2c4:|

